src/lib/packages/icons/src/assets/filled/arrow-down-arrow-up-square.svg

<svg width="24" height="24" viewBox="0 0 24 24" fill="none" xmlns="http://www.w3.org/2000/svg">
<path d="M17.625 3H6.375C4.125 3 3 4.125 3 6.375V17.625C3 19.875 4.125 21 6.375 21H17.625C19.875 21 21 19.875 21 17.625V6.375C21 4.125 19.875 3 17.625 3ZM12.199 15.864L10.532 17.531C10.463 17.6 10.3801 17.6551 10.2891 17.6931C10.1981 17.7311 10.1 17.751 10.002 17.751C9.90395 17.751 9.80709 17.7311 9.71509 17.6931C9.62309 17.6551 9.54092 17.6 9.47192 17.531L7.80493 15.864C7.51193 15.572 7.51193 15.096 7.80493 14.803C8.09793 14.51 8.57297 14.51 8.86597 14.803L9.25293 15.189V9C9.25293 8.586 9.58893 8.25 10.0029 8.25C10.4169 8.25 10.7529 8.586 10.7529 9V15.1899L11.1399 14.804C11.4339 14.511 11.9089 14.512 12.2009 14.804C12.4919 15.096 12.492 15.571 12.199 15.864ZM16.1951 9.19702C16.0491 9.34302 15.857 9.41699 15.665 9.41699C15.473 9.41699 15.281 9.34402 15.135 9.19702L14.748 8.81104V15.001C14.748 15.415 14.412 15.751 13.998 15.751C13.584 15.751 13.248 15.415 13.248 15.001V8.81104L12.8611 9.19702C12.5671 9.49002 12.092 9.48902 11.8 9.19702C11.507 8.90402 11.507 8.42899 11.8 8.13599L13.467 6.46899C13.536 6.39999 13.6189 6.34488 13.7109 6.30688C13.8939 6.23088 14.1009 6.23088 14.2839 6.30688C14.3759 6.34488 14.4591 6.39999 14.5281 6.46899L16.1951 8.13599C16.4881 8.42899 16.4881 8.90402 16.1951 9.19702Z" fill="currentColor"/>
</svg>

<svg xmlns="http://www.w3.org/2000/svg" width="24" height="24" fill="none"><path fill="currentColor" d="M17.625 3H6.375C4.125 3 3 4.125 3 6.375v11.25C3 19.875 4.125 21 6.375 21h11.25C19.875 21 21 19.875 21 17.625V6.375C21 4.125 19.875 3 17.625 3Zm-5.426 12.864-1.667 1.667a.755.755 0 0 1-.817.162.746.746 0 0 1-.243-.162l-1.667-1.667a.75.75 0 1 1 1.061-1.061l.387.386V9a.75.75 0 0 1 1.5 0v6.19l.387-.386a.751.751 0 0 1 1.06 0 .75.75 0 0 1-.001 1.06Zm3.996-6.667a.748.748 0 0 1-1.06 0l-.387-.386v6.19a.75.75 0 0 1-1.5 0v-6.19l-.387.386A.751.751 0 0 1 11.8 8.136l1.667-1.667a.749.749 0 0 1 .817-.162.75.75 0 0 1 .244.162l1.667 1.667a.75.75 0 0 1 0 1.061Z"/></svg>
